!!!!SEGMENT: pl-wtm--r-1447--004_stefani-jozef--spiewki-z-obrazku-dramatycznego-floryna-no-4.krn
!!!cenid: 18xx:2465
!!!COM: Stefani, Józef
!!!COM-rismid: pe30024097
!!!CDT: 1800/04/16-1876/03/19
!!!CNT: Polish
!!!GTL: Śpiewki z Obrazku Dramatycznego Floryna
!!!OTL: No. 4
!!!PDT:
!!!AGN: Secular
!!!SMS-siglum: PL-Wtm
!!!SMS-shelfmark: R 1447
!!!SMS-shelfwork: 004 G
!!!SMS-variant:
!!!SMS-altvar:
!!!NIFC-rismid: 1001116468
!!!OMD: agitato.
!!!system-decoration: s1{(s2,s3)}
!!!AIN: 2 empty
!!!key:
**kern	**kern	**dynam	**kern	**text
*part2	*part2	*part2	*part1	*part1
*staff3	*staff2	*	*staff1	*staff1
*Iempty	*Ipiano	*	*Iempty	*
*	*I"Piano	*	*I"Floryna	*
*	*I'pf	*	*I'V	*
*clefF4	*clefG2	*	*clefG2	*
*k[b-e-]	*k[b-e-]	*	*k[b-e-]	*
*g:	*g:	*	*g:	*
*M2/4	*M2/4	*	*M2/4	*
=1	=1	=1	=1	=1
4G 4GG\	4g 4d 4B-^/	f	2r	.
4E- 4EE-/	4cc 4a 4g^/	.	.	.
=2	=2	=2	=2	=2
4.D 4.DD;/	4.dd 4.a 4.f#X;/	.	4r;	.
.	.	.	8r	.
8r	8r	.	16b-/	Co
.	.	.	16a/	mię
=3	=3	=3	=3	=3
8GG\L	8r	.	8g/	spo-
8D\	8gL 8d 8B-/	.	8g/	-tka,
8G\J	8gJ 8d 8B-/	.	8r	.
8r	8r	.	16b-/	to
.	.	.	16a/	rzecz
=4	=4	=4	=4	=4
8GG\L	8r	.	8g/	ja-
8D\	8gL 8d 8B-/	.	8g/	-sna
8G\J	8gJ 8d 8B-/	.	8r	.
8r	8r	.	16dd\	Już
.	.	.	16dd\	po
=5	=5	=5	=5	=5
8F#X 8FF#X/	8r	.	8.ee-\	szczę-
8r	8aL 8e- 8c/	.	.	.
.	.	.	16cc\	-ściu
8D 8DD/	8f#XJ 8d 8c 8A/	.	8.a/	mem
8r	8r	.	.	.
.	.	.	16dd\	nie-
!!LO:LB:g=original
=6	=6	=6	=6	=6
8G 8GG\	8r	.	4b-/	-ste-
8r	8gL 8d 8B-/	.	.	.
8G 8GG\	8gJ 8d 8B-/	.	8g/	-ty,
8r	8r	.	16b-/	Za-
.	.	.	16a/	-wie-
=7	=7	=7	=7	=7
8GG\L	8r	.	8g/	-dzio-
8D\	8gL 8d 8B-/	.	8g/	-na
8G\J	8gJ 8d 8B-/	.	8r	.
8r	8r	.	16b-/	mi-
.	.	.	16a/	-łość
=8	=8	=8	=8	=8
8GG\L	8r	.	8g/	wła-
8D\	8gL 8d 8B-/	.	8g/	-sna
8G\J	8gJ 8d 8B-/	.	8r	.
8r	8r	.	16b-/	To
.	.	.	16b-/	naj-
=9	=9	=9	=9	=9
8A 8AA\	8r	.	8a\	-wię-
8r	8f 8d 8A/	.	8dd\	-kszy
8AA 8AAA/	8r	.	8.ff\	gniew
8r	8g 8en 8c#X 8A/	.	.	.
.	.	.	16cc#X\	ko-
=10	=10	=10	=10	=10
8D 8DD/	8r	.	8een\	-bie-
8r	8fL 8d 8A/	.	8dd\	-ty
8D 8DD/	8fJ 8d 8A/	.	8r	.
8r	8r	.	8dd\	Nie
!!LO:LB:g=original
=11	=11	=11	=11	=11
8C 8CC^/	8r	.	8ee-X\	mo-
8r	8f#X 8e-X 8c 8A/	.	8cc\	-żna
8C 8CC/	8r	.	8a\	u-
8r	8f# 8e- 8A/	.	16b-\	-żyć
.	.	.	16cc\	o-
=12	=12	=12	=12	=12
8BB- 8BBB-/	8r	.	4dd\	-po-
8r	8g 8d 8G/	.	.	.
8BB- 8BBB-/	8r	.	8g/	-ru
8r	8g 8d 8G/	.	8r	.
=13	=13	=13	=13	=13
8AA 8AAA/	8r	.	8f#X/	Pro-
8r	8f#X 8d 8c/	.	8d/	-śbą
8AA 8AAA/	8r	.	16g/	gnie-
.	.	.	16f#/	-wu
8r	8g 8d 8B-/	.	16g/	nie
.	.	.	16b-/	zwy-
=14	=14	=14	=14	=14
8D 8DD/	8r	.	4dd\	-cię-
8r	8f#X 8d 8A/	.	.	.
8D 8DD;/	8f# 8d 8A;/	.	8a;\	-żem
8r	8r	.	16b-/	Niech
.	.	.	16a/	mię
!!LO:LB:g=original
=15	=15	=15	=15	=15
8GG\L	8r	p	8g/	wtrą-
8D\	8gL 8d 8B-/	.	8g/	-cą
8G\J	8gJ 8d 8B-/	.	8r	.
8r	8r	.	16b-/	do
.	.	.	16a/	kla-
=16	=16	=16	=16	=16
8GG\L	8r	.	8g/	-szto-
8D\	8gL 8d 8B-/	.	8g/	-ru
8G\J	8gJ 8d 8B-/	.	8r	.
8r	8r	.	16g/	Lecz
.	.	.	16a/	za-
=17	=17	=17	=17	=17
8E- 8EE-/	8g 8e- 8B-/	.	8.b-/	-strze-
8r	8r	.	.	.
.	.	.	16g/	-gam
8.C#X 8.CC#X/	8.g 8.en 8.B-^/	.	8een\	so-
.	.	.	16ee\	-bie
16r;	16r;	.	16r;	.
=18	=18	=18	=18	=18
4r	4r	.	2dd\	z Mę-
4D 4DD/	4ff#X 4dd 4cc 4a\	f	.	.
=19	=19	=19	=19	=19
4G 4GG/	4gg 4dd 4b- 4g\	.	4g/	-żem
4r	4r	.	4r	.
==	==	==	==	==
*-	*-	*-	*-	*-
!!title: @{OTL};
!!!RDF**kern: > = above
!!!RDF**kern: < = below
!!!RDF**kern: | = vertical stroke
!!!RDF**kern: N = linked
!!!RDF**kern: i = editorial accidental
!!!EED: Wojciech Jakubiak-Danek
!!!EEV: 2021-07-10
!!!URL-scan: http://repozytorium.nifc.pl/skany/pl-wtm-nut--r1447
!!!ONB-nifc: UWAGA: podział na pięć numerów (No. 1 – No. 5)
!!!ENC: Anastazja Marusiak
!!!END: 2021-07-05
